X: 62
T: The Ships In Full Sail
R: jig
M: 6/8
L: 1/8
K: Gmaj
DGG BGG|dGG BGG | efg dBG | ABA AGE |
DGG BGG|dGG BGG | efg dBG | ABF G3 :||
dgg bgg |aga bge |dgg bgg |a3 age |
dgg bgg |aga bge | efg dBG | ABF G3 :||
